X: 1004
T: Drill: IV Arpeggios Up
C: Grossi
M: 4/4
L: 1/4
%%staves (S1V1 S1V2) | (S2V1 S2V2)
V: S1V1 clef=treble
V: S1V2
V: S2V1 clef=bass
V: S2V2
K: C
[V: S1V1] [Q:1/4=80] C E G c | D F A d | E G B e | F A c f | e c A F | d B G E | c A F D | C4 |]
[V: S1V2] A, C E A | B, D F B | C E G C | D F A D | C A F D | B G E C | A F D B, | A,4 |]
[V: S2V1] F, A, C F | G, B, D G | A, C E A | B, D F B | A F D B, | G E C A, | F D B, G, | F,4 |]
[V: S2V2] D, F, A, D | E, G, B, E | F, A, C F | G, B, D G | F D B, G, | E C A, F, | D B, G, E, | D,4 |]

